img/illustrations/Check_the_need_for_registration.svg

<svg width="145" height="145" viewBox="0 0 145 145" fill="none" xmlns="http://www.w3.org/2000/svg">
<path d="M6 120H127.18" stroke="#007B64" stroke-width="2" stroke-linecap="round" stroke-linejoin="round"/>
<path d="M134.5 120H140" stroke="#007B64" stroke-width="2" stroke-linecap="round" stroke-linejoin="round"/>
<path d="M23.1898 45.31C23.1898 45.31 27.5998 47.6 26.5998 54.6C25.5998 61.6 26.5998 65.6 25.5998 70.6C24.7898 74.6 23.5998 78.6 23.5998 78.6L20.7798 51.23V48.6L22.1398 45.84L23.1898 45.31Z" fill="#EBEBEB"/>
<path d="M92.9202 30.18H39.0202C35.1266 30.18 31.9702 33.3364 31.9702 37.23V112.13C31.9702 116.024 35.1266 119.18 39.0202 119.18H92.9202C96.8138 119.18 99.9702 116.024 99.9702 112.13V37.23C99.9702 33.3364 96.8138 30.18 92.9202 30.18Z" fill="white"/>
<path d="M32.02 111.16H99.81V112.54C99.81 114.54 99.0156 116.458 97.6016 117.872C96.1876 119.286 94.2698 120.08 92.27 120.08H39.6C37.6003 120.08 35.6825 119.286 34.2684 117.872C32.8544 116.458 32.06 114.54 32.06 112.54V111.16H32.02Z" fill="#EBEBEB"/>
<path d="M111.33 82.3875L108.635 84.4441C107.981 84.9434 107.855 85.8784 108.355 86.5325L126.367 110.134C126.866 110.789 127.801 110.914 128.455 110.415L131.15 108.358C131.804 107.859 131.93 106.924 131.431 106.27L113.418 82.668C112.919 82.0138 111.984 81.8882 111.33 82.3875Z" stroke="#007B64" stroke-width="1.59" stroke-miterlimit="10"/>
<path d="M99.93 90.97C111.373 90.97 120.65 81.6933 120.65 70.25C120.65 58.8067 111.373 49.53 99.93 49.53C88.4866 49.53 79.21 58.8067 79.21 70.25C79.21 81.6933 88.4866 90.97 99.93 90.97Z" fill="#FFC463"/>
<path d="M99.9301 86.58C108.949 86.58 116.26 79.2688 116.26 70.25C116.26 61.2312 108.949 53.92 99.9301 53.92C90.9113 53.92 83.6001 61.2312 83.6001 70.25C83.6001 79.2688 90.9113 86.58 99.9301 86.58Z" fill="white"/>
<path d="M105.78 78.6C104.36 83.52 99.2202 86.6 99.2202 86.6C101.873 86.7156 104.514 86.183 106.915 85.0482C109.315 83.9134 111.403 82.2106 112.998 80.0873C114.592 77.9639 115.645 75.484 116.066 72.8621C116.486 70.2402 116.261 67.5554 115.41 65.04V65.04C110.6 65.47 107.54 70.39 105.78 78.6Z" fill="#EBEBEB"/>
<path d="M49.0498 45.14H73.5998" stroke="#007B64" stroke-width="2" stroke-linecap="round" stroke-linejoin="round"/>
<path d="M43.9899 41.6V48.6H41.5999V43.42H40.3999V41.6H43.9899Z" fill="#FFC463"/>
<path d="M49.0498 58.98H73.5998" stroke="#007B64" stroke-width="2" stroke-linecap="round" stroke-linejoin="round"/>
<path d="M45.3198 60.73V62.6H39.7098V61.11L42.2398 58.77C42.418 58.6221 42.5672 58.4424 42.6798 58.24C42.7535 58.1088 42.7914 57.9605 42.7898 57.81C42.7927 57.7349 42.7789 57.6601 42.7495 57.591C42.7202 57.5218 42.6759 57.46 42.6198 57.41C42.4717 57.3046 42.291 57.255 42.1098 57.27C41.8975 57.267 41.689 57.3261 41.5098 57.44C41.3251 57.553 41.176 57.716 41.0798 57.91L39.2998 57.02C39.5709 56.5243 39.9765 56.1153 40.4698 55.84C41.0412 55.5347 41.6822 55.3831 42.3298 55.4C42.8342 55.3875 43.3354 55.483 43.7998 55.68C44.1977 55.8347 44.5442 56.098 44.7998 56.44C45.0372 56.78 45.163 57.1854 45.1598 57.6C45.1611 57.9734 45.0791 58.3423 44.9198 58.68C44.6597 59.1185 44.3206 59.505 43.9198 59.82L42.9198 60.73H45.3198Z" fill="#FFC463"/>
<path d="M49.0498 72.91H73.5998" stroke="#007B64" stroke-width="2" stroke-linecap="round" stroke-linejoin="round"/>
<path d="M44.8701 72.82C45.1614 73.1779 45.314 73.6287 45.3001 74.09C45.3031 74.5048 45.1849 74.9114 44.9601 75.26C44.6965 75.6535 44.325 75.9625 43.8901 76.15C43.3245 76.3899 42.7142 76.5058 42.1001 76.49C41.5959 76.4883 41.0932 76.4346 40.6001 76.33C40.1505 76.2334 39.7164 76.0752 39.3101 75.86L40.1101 74.12C40.4038 74.2832 40.716 74.4108 41.0401 74.5C41.3668 74.5844 41.7026 74.6281 42.0401 74.63C42.2684 74.6399 42.4955 74.5918 42.7001 74.49C42.7754 74.4539 42.8389 74.3972 42.8832 74.3263C42.9275 74.2555 42.9507 74.1735 42.9501 74.09C42.9501 73.77 42.6701 73.61 42.1201 73.61H41.1901V72.16L42.1901 71.16H39.7001V69.33H44.9201V70.78L43.6001 72.1C44.0917 72.1922 44.5385 72.4455 44.8701 72.82V72.82Z" fill="#FFC463"/>
<path d="M49.0498 86.75H73.5998" stroke="#007B64" stroke-width="2" stroke-linecap="round" stroke-linejoin="round"/>
<path d="M45.9901 89.05H45.0601V90.25H42.7701V89.05H39.1401V87.6L42.1401 83.3H44.5601L41.9201 87.3H42.9201V86.23H45.1401V87.3H46.0701L45.9901 89.05Z" fill="#FFC463"/>
<path d="M49.0498 100.59H73.5998" stroke="#007B64" stroke-width="2" stroke-linecap="round" stroke-linejoin="round"/>
<path d="M44.6902 100.1C44.9216 100.297 45.105 100.545 45.2263 100.824C45.3476 101.103 45.4036 101.406 45.3902 101.71C45.3913 102.142 45.27 102.565 45.0402 102.93C44.7816 103.326 44.4133 103.639 43.9802 103.83C43.4162 104.075 42.8047 104.191 42.1902 104.17C41.6924 104.172 41.196 104.118 40.7102 104.01C40.2608 103.924 39.8284 103.765 39.4302 103.54L40.2302 101.8C40.5172 101.97 40.827 102.098 41.1502 102.18C41.4756 102.271 41.8124 102.314 42.1502 102.31C42.3783 102.318 42.6049 102.27 42.8102 102.17C42.8874 102.133 42.9527 102.075 42.9987 102.002C43.0446 101.93 43.0694 101.846 43.0702 101.76C43.0717 101.683 43.0508 101.607 43.01 101.541C42.9691 101.475 42.9102 101.423 42.8402 101.39C42.5774 101.283 42.2932 101.238 42.0102 101.26H40.0102L40.3602 97.01H45.0102V98.79H42.2202V99.48H42.5802C43.3349 99.4291 44.083 99.649 44.6902 100.1V100.1Z" fill="#FFC463"/>
<path d="M99.81 95.47V112.2C99.81 114.057 99.0725 115.837 97.7598 117.15C96.447 118.462 94.6665 119.2 92.81 119.2H39.02C37.1635 119.2 35.383 118.462 34.0703 117.15C32.7575 115.837 32.02 114.057 32.02 112.2V37C32.02 35.1435 32.7575 33.363 34.0703 32.0503C35.383 30.7375 37.1635 30 39.02 30H92.81C94.6665 30 96.447 30.7375 97.7598 32.0503C99.0725 33.363 99.81 35.1435 99.81 37V44.78" stroke="#007B64" stroke-width="2" stroke-linecap="round" stroke-linejoin="round"/>
<path d="M27.72 116.48C27.568 116.204 27.4376 115.916 27.33 115.62C27.174 115.163 27.0701 114.69 27.02 114.21L20.69 50.34C20.5601 48.9726 20.9033 47.6021 21.6622 46.4573C22.4212 45.3125 23.5499 44.4628 24.86 44.05" stroke="#007B64" stroke-width="1.71" stroke-linecap="round" stroke-linejoin="round"/>
</svg>

<svg width="145" height="145" fill="none" xmlns="http://www.w3.org/2000/svg"><path d="M6 120h121.18m7.32 0h5.5" stroke="#007B64" stroke-width="2" stroke-linecap="round" stroke-linejoin="round"/><path d="M23.19 45.31s4.41 2.29 3.41 9.29c-1 7 0 11-1 16-.81 4-2 8-2 8l-2.82-27.37V48.6l1.36-2.76 1.05-.53z" fill="#EBEBEB"/><path d="M92.92 30.18h-53.9a7.05 7.05 0 00-7.05 7.05v74.9a7.05 7.05 0 007.05 7.05h53.9a7.05 7.05 0 007.05-7.05v-74.9a7.05 7.05 0 00-7.05-7.05z" fill="#fff"/><path d="M32.02 111.16h67.79v1.38a7.54 7.54 0 01-7.54 7.54H39.6a7.54 7.54 0 01-7.54-7.54v-1.38h-.04z" fill="#EBEBEB"/><path d="M111.33 82.388l-2.695 2.056a1.49 1.49 0 00-.28 2.088l18.012 23.602c.499.655 1.434.78 2.088.281l2.695-2.057a1.49 1.49 0 00.281-2.088l-18.013-23.602a1.49 1.49 0 00-2.088-.28z" stroke="#007B64" stroke-width="1.59" stroke-miterlimit="10"/><path d="M99.93 90.97c11.443 0 20.72-9.277 20.72-20.72s-9.277-20.72-20.72-20.72-20.72 9.277-20.72 20.72 9.277 20.72 20.72 20.72z" fill="#FFC463"/><path d="M99.93 86.58c9.019 0 16.33-7.311 16.33-16.33 0-9.019-7.311-16.33-16.33-16.33-9.019 0-16.33 7.311-16.33 16.33 0 9.019 7.311 16.33 16.33 16.33z" fill="#fff"/><path d="M105.78 78.6c-1.42 4.92-6.56 8-6.56 8a16.342 16.342 0 0016.846-13.738c.42-2.622.195-5.307-.656-7.822-4.81.43-7.87 5.35-9.63 13.56z" fill="#EBEBEB"/><path d="M49.05 45.14H73.6" stroke="#007B64" stroke-width="2" stroke-linecap="round" stroke-linejoin="round"/><path d="M43.99 41.6v7H41.6v-5.18h-1.2V41.6h3.59z" fill="#FFC463"/><path d="M49.05 58.98H73.6" stroke="#007B64" stroke-width="2" stroke-linecap="round" stroke-linejoin="round"/><path d="M45.32 60.73v1.87h-5.61v-1.49l2.53-2.34a1.87 1.87 0 00.44-.53.86.86 0 00.11-.43.51.51 0 00-.17-.4.77.77 0 00-.51-.14 1.09 1.09 0 00-.6.17 1.15 1.15 0 00-.43.47l-1.78-.89a3 3 0 011.17-1.18 3.74 3.74 0 011.86-.44 3.54 3.54 0 011.47.28 2.28 2.28 0 011 .76 2 2 0 01.36 1.16 2.51 2.51 0 01-.24 1.08c-.26.438-.6.825-1 1.14l-1 .91h2.4z" fill="#FFC463"/><path d="M49.05 72.91H73.6" stroke="#007B64" stroke-width="2" stroke-linecap="round" stroke-linejoin="round"/><path d="M44.87 72.82c.291.358.444.809.43 1.27a2.13 2.13 0 01-.34 1.17 2.46 2.46 0 01-1.07.89 4.3 4.3 0 01-1.79.34 7.348 7.348 0 01-1.5-.16 5 5 0 01-1.29-.47l.8-1.74c.294.163.606.29.93.38a4.09 4.09 0 001 .13c.228.01.456-.038.66-.14a.44.44 0 00.25-.4c0-.32-.28-.48-.83-.48h-.93v-1.45l1-1H39.7v-1.83h5.22v1.45L43.6 72.1a2.25 2.25 0 011.27.72z" fill="#FFC463"/><path d="M49.05 86.75H73.6" stroke="#007B64" stroke-width="2" stroke-linecap="round" stroke-linejoin="round"/><path d="M45.99 89.05h-.93v1.2h-2.29v-1.2h-3.63V87.6l3-4.3h2.42l-2.64 4h1v-1.07h2.22v1.07h.93l-.08 1.75z" fill="#FFC463"/><path d="M49.05 100.59H73.6" stroke="#007B64" stroke-width="2" stroke-linecap="round" stroke-linejoin="round"/><path d="M44.69 100.1a1.996 1.996 0 01.7 1.61c.001.432-.12.855-.35 1.22a2.445 2.445 0 01-1.06.9 4.138 4.138 0 01-1.79.34 6.696 6.696 0 01-1.48-.16 4.212 4.212 0 01-1.28-.47l.8-1.74c.287.17.597.298.92.38.326.091.662.134 1 .13.228.008.455-.04.66-.14a.455.455 0 00.26-.41.402.402 0 00-.23-.37 1.826 1.826 0 00-.83-.13h-2l.35-4.25h4.65v1.78h-2.79v.69h.36a3.18 3.18 0 012.11.62z" fill="#FFC463"/><path d="M99.81 95.47v16.73a7 7 0 01-7 7H39.02a7.003 7.003 0 01-7-7V37a7 7 0 017-7h53.79a7 7 0 017 7v7.78" stroke="#007B64" stroke-width="2" stroke-linecap="round" stroke-linejoin="round"/><path d="M27.72 116.48a6.113 6.113 0 01-.39-.86 6.431 6.431 0 01-.31-1.41l-6.33-63.87a6 6 0 014.17-6.29" stroke="#007B64" stroke-width="1.71" stroke-linecap="round" stroke-linejoin="round"/></svg>
